X:1
T:Title
%%score { ( 1 3 ) | ( 2 4 ) }
L:1/8
M:3/4
K:A
V:1 treble nm="Grand Piano"
V:3 treble 
V:2 bass 
V:4 bass 
V:1
 z2 z2[Q:1/4=100] cc | A2 A2 [A,EA][A,DF] | [A,CE]4 [A,CE][CEA] | [EAc][EA] [DFB]2 [CA]G | %4
[M:2/4] [CEA]4 |[M:1/4] [Ec][Ec] |[M:3/4] [CEA]2 [CEA]2 [A,EA][A,DF] | [A,CE]4 [A,CE][CEA] | %8
 [EAc][EA] [DFB]2 [CA]G |[M:2/4] [CEA]4 |[M:1/4] [Ac][Bd] |[M:3/4] [ce]3 [Ac] [df][ce] | %12
 [Ac]4 [CA][DAB] | [EAc]3 [CA] [FAd][EAc] |[M:2/4] [EGB]4 |[M:1/4] [Ec][Ec] | %16
[M:3/4] [CEA]2 [CEA]2 [A,EA][A,DF] | [A,CE]4 [A,CE][CEA] | [EAc][EA] [DFB]2 [CA]G | %19
[M:6/4] .[CEA]6 z6 |] %20
V:2
 z2 z2 [A,E][A,E] | [A,CE]2 [A,CE]2 C,D, | A,,4 A,,A,, | z2 z2 E,2 |[M:2/4] A,,4 |[M:1/4] A,A, | %6
[M:3/4] A,2 A,2 C,D, | A,,4 A,,A,, | z2 z2 E,2 |[M:2/4] A,,4 |[M:1/4] A,A, |[M:3/4] A,3 A, A,A, | %12
 A,4 A,A, | A,3 A, D,A, |[M:2/4] E,4 |[M:1/4] A,A, |[M:3/4] A,2 A,2 C,D, | A,,4 A,,A,, | %18
 z2 z2 E,2 |[M:6/4] .A,,6 z6 |] %20
V:3
 x6 | x6 | x6 | z2 z2 E2 |[M:2/4] x4 |[M:1/4] x2 |[M:3/4] x6 | x6 | z2 z2 E2 |[M:2/4] x4 | %10
[M:1/4] x2 |[M:3/4] x6 | x6 | x6 |[M:2/4] x4 |[M:1/4] x2 |[M:3/4] x6 | x6 | z2 z2 E2 | %19
[M:6/4] x12 |] %20
V:4
 x6 | x6 | x6 | A,,C, D,2 z B, |[M:2/4] x4 |[M:1/4] x2 |[M:3/4] x6 | x6 | A,,C, D,2 z B, | %9
[M:2/4] x4 |[M:1/4] x2 |[M:3/4] x6 | x6 | x6 |[M:2/4] x4 |[M:1/4] x2 |[M:3/4] x6 | x6 | %18
 A,,C, D,2 z B, |[M:6/4] x12 |] %20

